X: 11178
T: Dunedin Valley
R: reel
M: 4/4
K: Cmajor
S G,|"C"C/C/C CD EFGA|"Bb"_BGF_E D_B,FD|"C"C/C/C CD EFGA|"Bb"_BGFD "C"C/C/C CG,|
"C"C/C/C CD EFGA|"Bb"_BGF_E D_B,FD|"C"CDEC "Gm"D_B,G,A,|"Bb"_B,FED "C"C/C/C C||
G|"C"c/c/c cd ecGc|"Bb"_Bfdf _bfdB|"C"c/c/c cd ecGc|"Bb"_Bfed "C"c/c/c cG|
"C"c/c/c cd ecGc|"Bb"_BGF_E D_B,FD|"C"CDEC "Gm"D_B,G,A,|"Bb"_B,FED "C"C/C/C C||

